Numix-GalliumOS/22/status/semi-starred.svg

<?xml version="1.0" encoding="UTF-8" standalone="no"?>
<svg
   xmlns:dc="http://purl.org/dc/elements/1.1/"
   xmlns:cc="http://creativecommons.org/ns#"
   xmlns:rdf="http://www.w3.org/1999/02/22-rdf-syntax-ns#"
   xmlns:svg="http://www.w3.org/2000/svg"
   xmlns="http://www.w3.org/2000/svg"
   xmlns:sodipodi="http://sodipodi.sourceforge.net/DTD/sodipodi-0.dtd"
   xmlns:inkscape="http://www.inkscape.org/namespaces/inkscape"
   width="22"
   viewBox="0 0 22 22"
   height="22"
   id="svg2"
   version="1.1"
   inkscape:version="0.91 r13725"
   sodipodi:docname="semi-starred.svg">
  <metadata
     id="metadata20">
    <rdf:RDF>
      <cc:Work
         rdf:about="">
        <dc:format>image/svg+xml</dc:format>
        <dc:type
           rdf:resource="http://purl.org/dc/dcmitype/StillImage" />
        <dc:title></dc:title>
      </cc:Work>
    </rdf:RDF>
  </metadata>
  <defs
     id="defs18" />
  <sodipodi:namedview
     pagecolor="#ffffff"
     bordercolor="#666666"
     borderopacity="1"
     objecttolerance="10"
     gridtolerance="10"
     guidetolerance="10"
     inkscape:pageopacity="0"
     inkscape:pageshadow="2"
     inkscape:window-width="1366"
     inkscape:window-height="704"
     id="namedview16"
     showgrid="true"
     inkscape:zoom="21.454545"
     inkscape:cx="8.9571637"
     inkscape:cy="10.84238"
     inkscape:window-x="0"
     inkscape:window-y="27"
     inkscape:window-maximized="1"
     inkscape:current-layer="svg2">
    <inkscape:grid
       type="xygrid"
       id="grid2987" />
  </sodipodi:namedview>
  <path
     style="color:#000000;fill:#dfdd41;fill-opacity:1"
     d="M 11,1.5058594 C 9.5932083,1.5565601 8.7956586,6.5016047 7.6484375,7.3222656 6.4951131,8.1472931 1.4756967,7.3055959 1.03125,8.6464844 0.5866328,9.987881 5.1267445,12.284023 5.5605469,13.628906 c 0.4336317,1.344347 -1.9025045,5.827951 -0.7558594,6.66211 1.1470998,0.834485 4.751951,-2.742159 6.1738285,-2.736328 0.0066,2.6e-5 0.0148,0.0037 0.02148,0.0039 0.974159,-5.142163 0.760372,-10.5388862 0,-16.0527346 z"
     id="path6"
     inkscape:connector-curvature="0"
     sodipodi:nodetypes="cssssccc" />
  <path
     style="opacity:1;fill:#808080;fill-opacity:1;stroke:none;stroke-width:0.5;stroke-linecap:round;stroke-linejoin:round;stroke-miterlimit:4;stroke-dasharray:none;stroke-opacity:1"
     d="M 11.023438 1.5 C 11.015356 1.4999679 11.008042 1.5055695 11 1.5058594 L 11 17.558594 C 12.434323 17.597665 15.959657 21.200402 17.107422 20.378906 C 18.260988 19.553257 15.951511 15.015111 16.396484 13.673828 C 16.841272 12.33308 21.40469 10.078609 20.970703 8.734375 C 20.536545 7.3896049 15.500387 8.2019683 14.353516 7.3671875 C 13.207083 6.5327314 12.444761 1.5054624 11.023438 1.5 z "
     id="rect4136" />
</svg>

<svg xmlns="http://www.w3.org/2000/svg" viewBox="0 0 22 22">
 <path d="m 11 1.506 c -1.407 0.051 -2.204 4.996 -3.352 5.816 -1.153 0.825 -6.173 -0.017 -6.617 1.324 -0.445 1.341 4.095 3.638 4.529 4.982 c 0.434 1.344 -1.903 5.828 -0.756 6.662 1.147 0.834 4.752 -2.742 6.174 -2.736 0.007 0 0.015 0.004 0.021 0.004 0.974 -5.142 0.76 -10.539 0 -16.05 z" style="fill:#dfdd41;fill-opacity:1;color:#000"/>
 <path d="m 11.02 1.5 c -0.008 0 -0.015 0.006 -0.023 0.006 l 0 16.05 c 1.434 0.039 4.96 3.642 6.107 2.82 c 1.154 -0.826 -1.156 -5.364 -0.711 -6.705 c 0.445 -1.341 5.01 -3.595 4.574 -4.939 c -0.434 -1.345 -5.47 -0.532 -6.617 -1.367 c -1.146 -0.834 -1.909 -5.862 -3.33 -5.867 z" style="fill:#808080;opacity:1;fill-opacity:1;stroke:none"/>
</svg>
